X: 10736
T: Dr. Carroll
R: hornpipe
M: 4/4
K: Gmajor
|:BA|GA (3Bcd ~g2fg|edBG AcBA|GA (3Bcd gabg|c'bag e2dB|
GA (3Bcd ~g2fg|edBG AcBA|GA (3Bcd gabg|1 agef g2:|2 agef g2ga||
|:~b2ag ~b2ag|ef (3gfe dBAB|GA (3Bcd gabg|c'bag e2ga|
~b2ag ~b2ag|ef (3gfe dBAB|GA (3Bcd gabg|1 agef g2ga:|2 gfef g2||

